X:1
T:Title
%%score 1 { 2 | 3 }
L:1/8
Q:1/4=80
M:6/8
K:Ab
V:1 treble nm="Grand Piano, Soprano"
V:2 treble nm="Choir Pad, Jesus Through Samaria"
V:3 bass 
V:1
 E[Ac]>[A_c] [A=c][EA]>[EA] | [EA][FA]>[EG] [DF] [CE]2 | [CE][EA]>[EA] [EA][EA][EG] | %3
w: By~John~B.~Hicks * * * * *|||
 [EA]/[EB]<[Ac][EB]/ A [GB]2 | E[Ac]>[A_c] [A=c][EA]>[EA] | [EA][FA]>[EG] [DF] [CE]2 | %6
w: |||
 [Ec][Ae]>[Af] [Ae][Ae][Ac] | [EA][Ac]<[Ac] [EB] [EA]2 | [Ac] [Ae]2- [Ae]2 [A=d] | %9
w: |||
 [Ae] [Ac]2- [Ac]2- [Ac]/ z/ | [EA] [FA]2- [FA]2 [EG] | [DF] [CE]2- [CE]2- [CE]/ z/ | %12
w: |||
 [CE][EA]>[EA] [EA][EA]>[EG] | [EA] [GB]2- [GB]2- [GB]/ z/ | E [Ac]2- [Ac]2 [A_c] | %15
w: |||
 [Ac] [EA]2- [EA]2- [EA]/ z/ | [EA] [FA]2- [FA]2 [EG] | [DF] [CE]2- [CE]2- [CE]/ z/ | %18
w: |||
 [Ec][Ae]>[Af] [Ae][Ae]<[Ac] | [EA][Ac]>[EA] [EB] [EA]2- | [EA]6 |] %21
w: |||
V:2
 CE>=D EC>C | CD>D[K:bass] A, A,2 | A,C>C[K:treble] CCD | C/D<ED/ C E2 | CE>=D EC>C | %5
 CD>D[K:bass] A, A,2 | A,C>D[K:treble] CCE | CE<E D C2 | CCC CC_C | CEE E E2 | CDD DDD | %11
 A,A,A, A, A,2 | A,[K:treble]C>C CA,>B, | C E2- E2- E/ z/ | CEE EE=D | ECC C C2 | CDD DDD | %17
 A,A,A, A, A,2 | A,[K:treble]C>D CC<E | CE>C D C2- | C6 |] %21
V:3
 A,A,>A, A,A,>A, | A,D,>D, D, A,,2 | z A,>A, A,A,A, | A,/A,<A,G,/ F, E,2 | A,A,>A, A,A,>A, | %5
 A,D,>D, D, A,,2 | z A,>A, A,A,A, | A,E,<E, E, A,,2 | A,A,A, A,A,A, | A,A,A, A, A,2 | %10
 A,D,D, D,D,D, | D,A,,A,, A,, A,,2 | z A,>A, A,C,>B,, | A,, E,2- E,2- E,/ z/ | A,A,A, A,A,A, | %15
 A,A,A, A, A,2 | A,D,D, D,D,D, | D,A,,A,, A,, A,,2 | z A,>A, A,A,<A, | A,E,>E, E, A,,2- | A,,6 |] %21

